svg/human_wheelchair.svg

<svg xmlns="http://www.w3.org/2000/svg" viewBox="0 0 24 24"><path d="M8.5 4a2 2 0 0 1-2 2 2 2 0 0 1-2-2 2 2 0 0 1 2-2 2 2 0 0 1 2 2M5 7c-1.11 0-2 .89-2 2v6h2v7h3.61a7 7 0 0 1-2.11-5 7 7 0 0 1 3.5-6.05V9c0-1.11-.89-2-2-2m5 1v8h5.5l2.7 3.6 1.6-1.2-3.3-4.4H15V8m-3 4.23A5 5 0 0 0 8.5 17a5 5 0 0 0 5 5 5 5 0 0 0 5-5h-2a3 3 0 0 1-3 3 3 3 0 0 1-3-3 3 3 0 0 1 1.5-2.59Z"/></svg>

<?xml version="1.0" encoding="UTF-8"?><!DOCTYPE svg PUBLIC "-//W3C//DTD SVG 1.1//EN" "http://www.w3.org/Graphics/SVG/1.1/DTD/svg11.dtd"><svg xmlns="http://www.w3.org/2000/svg" xmlns:xlink="http://www.w3.org/1999/xlink" version="1.1" id="mdi-human-wheelchair" width="24" height="24" viewBox="0 0 24 24"><path d="M8.5 4A2 2 0 0 1 6.5 6A2 2 0 0 1 4.5 4A2 2 0 0 1 6.5 2A2 2 0 0 1 8.5 4M5 7C3.89 7 3 7.89 3 9V15H5V22H8.61A7 7 0 0 1 6.5 17A7 7 0 0 1 10 10.95V9C10 7.89 9.11 7 8 7M13 8V16H18.5L21.2 19.6L22.8 18.4L19.5 14H15V8M12 12.23A5 5 0 0 0 8.5 17A5 5 0 0 0 13.5 22A5 5 0 0 0 18.5 17H16.5A3 3 0 0 1 13.5 20A3 3 0 0 1 10.5 17A3 3 0 0 1 12 14.41Z" /></svg>
